americans/img/prev.svg

<svg width="25" height="22" viewBox="0 0 25 22" fill="none" xmlns="http://www.w3.org/2000/svg">
<path fill-rule="evenodd" clip-rule="evenodd" d="M10.2422 21.3069L0.376116 11.4408V10.0458L10.2422 0.179688L11.6372 1.57475L3.4563 9.75767H24.0547V11.7309H3.45433L11.6392 19.9118L10.2442 21.3069H10.2422Z" fill="#FFF8DC"/>
</svg>

<svg width="25" height="22" fill="none" xmlns="http://www.w3.org/2000/svg"><path fill-rule="evenodd" clip-rule="evenodd" d="M10.242 21.307.376 11.44v-1.395L10.242.18l1.395 1.395-8.18 8.183h20.598v1.973h-20.6l8.184 8.18-1.395 1.396h-.002Z" fill="#FFF8DC"/></svg>
